icons/svg/seamark/marine_farm_oysters_mussels_additional.svg

<?xml version="1.0" encoding="UTF-8" standalone="no"?>
<svg
   xmlns:dc="http://purl.org/dc/elements/1.1/"
   xmlns:cc="http://creativecommons.org/ns#"
   xmlns:rdf="http://www.w3.org/1999/02/22-rdf-syntax-ns#"
   xmlns:svg="http://www.w3.org/2000/svg"
   xmlns="http://www.w3.org/2000/svg"
   xmlns:sodipodi="http://sodipodi.sourceforge.net/DTD/sodipodi-0.dtd"
   xmlns:inkscape="http://www.inkscape.org/namespaces/inkscape"
   width="580"
   height="580"
   id="svg2"
   version="1.1"
   inkscape:version="0.48.4 r9939"
   sodipodi:docname="marine_farm_oysters_mussels_additional.svg">
  <defs
     id="defs13">
    <inkscape:path-effect
       effect="gears"
       id="path-effect3774"
       is_visible="true"
       teeth="6"
       phi="-1.2" />
    <inkscape:path-effect
       effect="bend_path"
       id="path-effect3772"
       is_visible="false"
       bendpath="m 95.790098,316.51174 c 144.429032,-206.42506 223.313032,-11.7428 339.548092,0"
       prop_scale="1.19"
       scale_y_rel="false"
       vertical="false"
       bendpath-nodetypes="cc" />
  </defs>
  <sodipodi:namedview
     pagecolor="#ffffff"
     bordercolor="#666666"
     borderopacity="1"
     objecttolerance="10"
     gridtolerance="10"
     guidetolerance="10"
     inkscape:pageopacity="0"
     inkscape:pageshadow="2"
     inkscape:window-width="1920"
     inkscape:window-height="1004"
     id="namedview11"
     showgrid="false"
     inkscape:zoom="0.81379307"
     inkscape:cx="223.95753"
     inkscape:cy="336.78187"
     inkscape:window-x="1680"
     inkscape:window-y="0"
     inkscape:window-maximized="1"
     inkscape:current-layer="svg2"
     inkscape:snap-object-midpoints="false"
     inkscape:snap-page="true" />
  <metadata
     id="metadata2975">image/svg+xmlen<rdf:RDF>
  <cc:Work
     rdf:about="">
    <dc:format>image/svg+xml</dc:format>
    <dc:type
       rdf:resource="http://purl.org/dc/dcmitype/StillImage" />
    <dc:title />
  </cc:Work>
</rdf:RDF>
</metadata>
  <path
     sodipodi:type="inkscape:offset"
     inkscape:radius="23.846785"
     inkscape:original="M -53.90625 -361.125 C -59.18538 -361.89459 -64.42061 -359.8129 -64.3125 -344.09375 C -64.15035 -324.61512 -68.59375 -239.75 -68.59375 -239.75 C -68.61185 -239.0954 -69.89701 -238.5625 -71.4375 -238.5625 L -73.78125 -238.5625 C -75.34877 -238.5625 -76.58896 -239.0954 -76.625 -239.75 C -76.625 -239.75 -80.84094 -341.91535 -81.15625 -350.53125 C -81.48957 -359.14715 -84.306654 -362.67848 -96 -360.28125 C -108.91853 -358.54746 -120.80154 -355.65533 -131.0625 -350.78125 C -142.26938 -345.44716 -140.28732 -341.69765 -136.59375 -330.84375 C -132.90016 -319.981 -96.28125 -231.78125 -96.28125 -231.78125 C -96.03802 -231.17089 -96.89447 -230.2495 -98.21875 -229.71875 L -100.1875 -228.9375 C -101.49377 -228.41558 -102.78322 -228.45214 -103.0625 -229.0625 C -103.0625 -229.0625 -143.81265 -308.18751 -148.8125 -318.21875 C -153.81234 -328.24114 -159.7961 -332.38706 -167.15625 -324.125 C -173.41733 -316.606 -178.62905 -308.13077 -182.1875 -298.71875 C -186.9171 -286.13104 -179.56773 -281.38574 -175.46875 -277.28125 C -171.35176 -273.17674 -116.1875 -220.09375 -116.1875 -220.09375 C -115.71003 -219.59839 -114.84211 -216.88582 -116.03125 -215.65625 L -117.8125 -213.8125 C -119.01066 -212.59177 -121.8615 -213.30763 -122.375 -213.75 L -177.53125 -257.84375 C -177.53125 -257.84375 -189.47805 -268.22741 -189.9375 -255.78125 C -189.9375 -196.31035 -142.2609 -210.02079 -110.9375 -182.15625 C -92.712806 -165.93289 -89.18757 -148.96875 -72.125 -148.96875 C -55.07146 -148.96875 -51.96541 -168.94446 -34.28125 -183.0625 C 0.92491 -211.17472 44.25 -197.21262 44.25 -255.78125 C 44.25 -259.35498 44.92195 -267.38251 33.625 -258.15625 C 27.51707 -253.15833 -21.875 -213.75 -21.875 -213.75 C -22.40652 -213.30771 -25.23934 -212.59183 -26.4375 -213.8125 L -28.21875 -215.65625 C -29.4169 -216.88582 -28.53997 -219.59839 -28.0625 -220.09375 C -28.0625 -220.09375 25.01935 -270.75059 31.875 -277.5 C 38.73967 -284.24941 38.29106 -294.69031 36.6875 -298.8125 C 32.6606 -309.13565 27.60876 -317.00621 20.90625 -325.3125 C 15.53704 -331.94691 7.56738 -328.18582 1 -314.15625 C -8.15287 -294.60683 -41.21875 -229.0625 -41.21875 -229.0625 C -41.49803 -228.46099 -42.79649 -228.39318 -44.09375 -228.90625 L -46.0625 -229.71875 C -47.37776 -230.25834 -48.21198 -231.17087 -47.96875 -231.78125 C -47.96875 -231.78125 -11.03822 -321.283 -8.75 -328.15625 C -6.44376 -335.0295 -2.2295 -345.65718 -13.5625 -350.53125 C -23.60725 -354.85689 -40.35711 -359.14351 -53.90625 -361.125 z M -125.21875 -177.28125 C -129.83122 -177.28125 -135.54936 -168.47775 -138.53125 -160.84375 C -141.20684 -154.00588 -139.6336 -150.75 -125.625 -150.75 C -106.27423 -150.75 -102.84375 -150.61263 -102.84375 -154.0625 C -102.84375 -161.3692 -119.58829 -177.28125 -125.21875 -177.28125 z M -20.65625 -177.28125 C -26.28671 -177.28125 -43 -161.3692 -43 -154.0625 C -43 -150.61263 -39.60078 -150.75 -20.25 -150.75 C -6.2414 -150.75 -4.66815 -154.00588 -7.34375 -160.84375 C -10.32565 -168.47775 -16.04377 -177.28125 -20.65625 -177.28125 z "
     style="opacity:0.72727273;color:#000000;fill:#e4e4e4;fill-opacity:1;fill-rule:nonzero;stroke:#a35151;stroke-width:0;stroke-linecap:round;stroke-linejoin:miter;stroke-miterlimit:4;stroke-opacity:1;stroke-dasharray:none;stroke-dashoffset:0;marker:none;visibility:visible;display:inline;overflow:visible;enable-background:accumulate"
     id="path4228"
     d="m -86.40625,-384.9375 c -4.630134,-0.37673 -8.906349,0.2845 -12.78125,1.03125 -0.512525,0.0988 -1.09888,0.14855 -1.59375,0.25 -13.92123,1.96848 -27.59133,5.21198 -40.5,11.34375 a 23.849169,23.849169 0 0 0 -0.0312,0 c -4.02693,1.91668 -8.03319,4.04232 -12.3125,8.125 -3.06543,2.92458 -6.01013,7.39864 -7.8125,12.125 -3.04275,0.15752 -6.04185,0.61937 -8.6875,1.59375 -6.72758,2.47774 -11.27728,6.46525 -14.84375,10.46875 a 23.849169,23.849169 0 0 0 -0.5,0.625 c -7.73567,9.28986 -14.42364,20.03172 -19.03125,32.21875 a 23.849169,23.849169 0 0 0 0,0.0625 c -3.50787,9.33612 -3.34155,20.43623 -0.375,29.03125 -6.79004,6.58865 -8.68497,15.4119 -8.90625,21.40625 a 23.849169,23.849169 0 0 0 0,0.875 c 0,18.05397 3.81857,33.60689 11.875,45.8125 8.05643,12.20561 19.46209,19.64381 29.53125,24.40625 5.75538,2.72214 11.03303,4.86656 16.03125,6.8125 -1.6952,3.03956 -3.18084,6.08156 -4.40625,9.21875 -1.19186,3.04599 -2.67053,6.786 -2.71875,12.96875 -0.0482,6.18275 3.21608,15.57122 8.96875,20.875 11.50534,10.60756 20.02321,8.78125 28.875,8.78125 9.61896,0 14.78538,0.28212 21.5,-0.53125 2.72295,-0.32984 6.405147,-0.60284 11.28125,-3.375 6.081144,3.31118 13.115355,5.6875 20.71875,5.6875 7.049622,0 14.178896,-2.07317 20,-5.125 4.445321,2.32762 7.815241,2.50169 10.375,2.8125 6.717997,0.81572 11.881039,0.53125 21.5,0.53125 8.851791,0 17.3696546,1.82631 28.875,-8.78125 5.752673,-5.30378 9.016968,-14.69224 8.96875,-20.875 -0.04822,-6.18276 -1.526879,-9.92276 -2.71875,-12.96875 -1.243096,-3.18247 -2.771548,-6.26112 -4.5,-9.34375 5.691709,-2.16269 11.620714,-4.50495 18.15625,-7.65625 9.877299,-4.76263 21.034142,-12.34378 28.625,-24.46875 7.590858,-12.12497 10.9375,-27.19905 10.9375,-44.78125 0,-0.14613 0.158843,-2.20421 -0.1875,-5.59375 -0.346343,-3.38954 -0.384738,-9.43841 -7.5,-16.875 -0.264083,-0.27601 -0.592872,-0.49073 -0.875,-0.75 0.702453,-2.37555 1.261737,-4.71778 1.5625,-6.90625 1.087877,-7.91582 0.808118,-13.86182 -2.1875,-21.5625 -4.989489,-12.79079 -11.789348,-23.33429 -19.4375,-32.8125 a 23.849169,23.849169 0 0 0 -0.03125,-0.0312 c -3.850303,-4.75759 -9.979841,-9.53264 -17.75,-11.28125 -2.303771,-0.51844 -4.615174,-0.64105 -6.90625,-0.59375 -3.716799,-8.31722 -10.5720856,-16.6551 -18.90625,-20.25 -0.00865,-0.004 -0.022596,0.004 -0.03125,0 -13.629013,-5.86508 -30.685141,-9.99583 -46.3125,-12.28125 -4.999508,-0.72883 -14.1223,0.26476 -21.75,4.6875 -4.848052,-3.09365 -9.638957,-4.53615 -14.1875,-4.90625 z"
     transform="matrix(0.87671443,0,0,0.87671443,353.84899,539.34823)" />
  <path
     style="color:#000000;fill:#ce59d5;fill-opacity:1;fill-rule:nonzero;stroke-width:0.96049488000000005;stroke-linecap:butt;stroke-linejoin:miter;stroke-miterlimit:4;stroke-opacity:1;stroke-dasharray:none;stroke-dashoffset:0;marker:none;visibility:visible;display:inline;overflow:visible;enable-background:accumulate"
     inkscape:connector-curvature="0"
     d="m 347.4127,398.33168 c 2.34573,5.99486 0.97147,8.86433 -11.31008,8.86433 -16.9651,0 -19.95848,0.10079 -19.95848,-2.92376 0,-6.40589 14.66677,-20.3577 19.60307,-20.3577 4.04383,0 9.05121,7.72429 11.66549,14.41713 z M 244.07403,383.91455 c -4.04382,0 -9.05121,7.72429 -11.66548,14.41713 -2.34573,5.99486 -0.97147,8.86433 11.31007,8.86433 16.9651,0 19.95849,0.10079 19.95849,-2.92376 0,-6.40589 -14.66677,-20.3577 -19.60308,-20.3577 z m 139.25921,-70.8836 c -5.35491,4.38175 -48.65227,38.91618 -48.65227,38.91618 -0.46599,0.38776 -2.96179,1.00819 -4.01223,-0.062 l -1.57173,-1.61312 c -1.05044,-1.07798 -0.27643,-3.45887 0.14218,-3.89316 0,0 46.54346,-44.4147 52.55391,-50.33201 6.01835,-5.9173 5.61555,-15.06082 4.20968,-18.6748 -3.53044,-9.05046 -7.96127,-15.93718 -13.83745,-23.21943 -4.70727,-5.81648 -11.68919,-2.52046 -17.4469,9.77946 -8.02446,17.13926 -36.99466,74.60616 -36.99466,74.60616 -0.24485,0.52735 -1.39007,0.56614 -2.52739,0.11632 l -1.7297,-0.69798 c -1.15311,-0.47307 -1.89553,-1.27186 -1.68229,-1.80699 0,0 32.38219,-78.47605 34.38831,-84.50192 2.02191,-6.02588 5.71032,-15.34003 -4.22548,-19.6132 -8.80638,-3.79235 -23.48104,-7.55368 -35.35977,-9.29088 -4.62828,-0.67471 -9.22498,1.16331 -9.1302,14.94451 0.14216,17.0772 -3.75159,91.47396 -3.75159,91.47396 -0.0159,0.57389 -1.14522,1.0392 -2.49579,1.0392 h -2.03772 c -1.37427,0 -2.47999,-0.46531 -2.51159,-1.0392 0,0 -3.68841,-89.56616 -3.96484,-97.11984 -0.29223,-7.55369 -2.74854,-10.64804 -13.00027,-8.54635 -11.32586,1.52003 -21.75134,4.05602 -30.74728,8.32919 -9.82523,4.67648 -8.09553,7.94146 -4.85733,17.45723 3.23823,9.52353 35.34398,86.85955 35.34398,86.85955 0.21325,0.53511 -0.52128,1.34167 -1.6823,1.80699 l -1.72969,0.69797 c -1.14522,0.45758 -2.28254,0.41879 -2.52739,-0.11632 0,0 -35.72308,-69.38682 -40.10652,-78.18135 -4.38343,-8.78678 -9.62776,-12.40075 -16.08051,-5.15728 -5.48918,6.59201 -10.05428,14.0061 -13.17402,22.25775 -4.14651,11.03583 2.28254,15.19266 5.87618,18.79113 3.60942,3.59848 51.96946,50.13813 51.96946,50.13813 0.4186,0.43429 1.18471,2.81518 0.14217,3.89316 l -1.57173,1.61312 c -1.05044,1.07023 -3.54624,0.44981 -3.99643,0.062 l -48.34423,-38.6525 c 0,0 -10.48867,-9.10474 -10.89148,1.80699 0,52.13899 41.80461,40.1105 69.26629,64.53974 15.97785,14.22326 19.06599,29.09795 34.02499,29.09795 14.95109,0 17.69173,-17.49599 33.19568,-29.87348 30.86575,-24.64639 68.84769,-12.42401 68.84769,-63.77197 0,-3.13314 0.58446,-10.1517 -9.31974,-2.06291 z"
     id="path3" />
</svg>

<svg width="580" height="580" viewBox="0 0 580 580" fill="none" xmlns="http://www.w3.org/2000/svg">
<path opacity="0.727273" d="M278.095 201.868C274.036 201.538 270.287 202.118 266.89 202.772C266.441 202.859 265.926 202.902 265.493 202.991C253.288 204.717 241.303 207.561 229.986 212.937C229.977 212.937 229.967 212.937 229.958 212.937C226.428 214.617 222.916 216.481 219.164 220.06C216.476 222.624 213.895 226.546 212.314 230.69C209.647 230.828 207.017 231.233 204.698 232.087C198.8 234.26 194.811 237.756 191.684 241.265C191.535 241.446 191.389 241.628 191.246 241.813C184.464 249.958 178.6 259.376 174.561 270.06C174.561 270.078 174.561 270.097 174.561 270.115C171.486 278.3 171.631 288.032 174.232 295.567C168.279 301.343 166.618 309.079 166.424 314.334C166.419 314.59 166.419 314.846 166.424 315.101C166.424 330.929 169.772 344.565 176.835 355.266C183.898 365.967 193.898 372.488 202.725 376.663C207.771 379.05 212.398 380.93 216.78 382.636C215.294 385.3 213.992 387.967 212.917 390.718C211.872 393.388 210.576 396.667 210.534 402.088C210.491 407.508 213.353 415.739 218.397 420.389C228.484 429.689 235.951 428.088 243.712 428.088C252.145 428.088 256.674 428.335 262.561 427.622C264.948 427.333 268.177 427.094 272.452 424.663C277.783 427.566 283.95 429.649 290.616 429.649C296.797 429.649 303.047 427.832 308.15 425.156C312.048 427.197 315.002 427.35 317.246 427.622C323.136 428.337 327.662 428.088 336.096 428.088C343.856 428.088 351.324 429.689 361.411 420.389C366.454 415.739 369.316 407.508 369.274 402.088C369.231 396.667 367.935 393.388 366.89 390.718C365.8 387.928 364.46 385.229 362.945 382.526C367.935 380.63 373.133 378.577 378.863 375.814C387.522 371.638 397.304 364.992 403.959 354.362C410.614 343.731 413.548 330.516 413.548 315.101C413.548 314.973 413.687 313.169 413.383 310.197C413.08 307.225 413.046 301.922 406.808 295.403C406.577 295.161 406.288 294.972 406.041 294.745C406.657 292.662 407.147 290.609 407.411 288.69C408.365 281.75 408.119 276.537 405.493 269.786C401.119 258.572 395.157 249.329 388.452 241.019C388.443 241.01 388.434 241.001 388.424 240.992C385.049 236.821 379.675 232.634 372.863 231.101C370.843 230.647 368.817 230.539 366.808 230.581C363.549 223.289 357.539 215.979 350.233 212.827C350.225 212.824 350.213 212.831 350.205 212.827C338.256 207.685 323.303 204.064 309.602 202.06C305.219 201.421 297.221 202.292 290.534 206.17C286.283 203.457 282.083 202.193 278.095 201.868L278.095 201.868Z" fill="#E4E4E4"/>
<path d="M347.413 398.332C349.758 404.327 348.384 407.196 336.103 407.196C319.138 407.196 316.144 407.297 316.144 404.273C316.144 397.867 330.811 383.915 335.747 383.915C339.791 383.915 344.798 391.639 347.413 398.332V398.332ZM244.074 383.915C240.03 383.915 235.023 391.639 232.409 398.332C230.063 404.327 231.437 407.196 243.719 407.196C260.684 407.196 263.677 407.297 263.677 404.273C263.677 397.867 249.01 383.915 244.074 383.915V383.915ZM383.333 313.031C377.978 317.413 334.681 351.947 334.681 351.947C334.215 352.335 331.719 352.956 330.669 351.885L329.097 350.272C328.047 349.194 328.821 346.813 329.239 346.379C329.239 346.379 375.783 301.964 381.793 296.047C387.811 290.13 387.409 280.986 386.003 277.372C382.472 268.322 378.042 261.435 372.165 254.153C367.458 248.336 360.476 251.632 354.718 263.932C346.694 281.072 317.724 338.539 317.724 338.539C317.479 339.066 316.334 339.105 315.196 338.655L313.467 337.957C312.314 337.484 311.571 336.685 311.784 336.15C311.784 336.15 344.167 257.674 346.173 251.648C348.195 245.622 351.883 236.308 341.947 232.035C333.141 228.242 318.466 224.481 306.587 222.744C301.959 222.069 297.362 223.907 297.457 237.688C297.599 254.766 293.706 329.162 293.706 329.162C293.69 329.736 292.56 330.202 291.21 330.202H289.172C287.798 330.202 286.692 329.736 286.661 329.162C286.661 329.162 282.972 239.596 282.696 232.043C282.404 224.489 279.947 221.395 269.695 223.496C258.37 225.016 247.944 227.552 238.948 231.825C229.123 236.502 230.853 239.767 234.091 249.283C237.329 258.806 269.435 336.142 269.435 336.142C269.648 336.677 268.914 337.484 267.753 337.949L266.023 338.647C264.878 339.105 263.74 339.066 263.495 338.531C263.495 338.531 227.772 269.144 223.389 260.349C219.006 251.563 213.761 247.949 207.308 255.192C201.819 261.784 197.254 269.198 194.134 277.45C189.988 288.486 196.417 292.643 200.011 296.241C203.62 299.84 251.98 346.379 251.98 346.379C252.399 346.813 253.165 349.194 252.122 350.272L250.551 351.885C249.5 352.956 247.004 352.335 246.554 351.947L198.21 313.295C198.21 313.295 187.721 304.19 187.318 315.102C187.318 367.241 229.123 355.212 256.585 379.642C272.563 393.865 275.651 408.74 290.61 408.74C305.561 408.74 308.301 391.244 323.805 378.866C354.671 354.22 392.653 366.442 392.653 315.094C392.653 311.961 393.237 304.942 383.333 313.031V313.031Z" fill="#CE59D5"/>
</svg>
